modules/hawcons-filled/icons/baseball.svg

<?xml version="1.0" encoding="UTF-8" standalone="no"?>
<svg width="32px" height="32px" viewBox="0 0 32 32" version="1.1" xmlns="http://www.w3.org/2000/svg" xmlns:xlink="http://www.w3.org/1999/xlink" xmlns:sketch="http://www.bohemiancoding.com/sketch/ns">
    <!-- Generator: Sketch 3.0.3 (7891) - http://www.bohemiancoding.com/sketch -->
    <title>icon 2 baseball</title>
    <desc>Created with Sketch.</desc>
    <defs></defs>
    <g id="Page-1" stroke="none" stroke-width="1" fill="none" fill-rule="evenodd" sketch:type="MSPage">
        <g id="icon-2-baseball" sketch:type="MSArtboardGroup" fill="#929292">
            <path d="M25,25.6652267 C22.7696023,27.734704 19.7825641,29 16.5,29 C13.2174359,29 10.2303977,27.734704 8,25.6652267 L8,25.6652267 L8,25.6652267 C8.54143597,25.1628546 9.03828381,24.6130929 9.48394718,24.0225379 L10.2196448,24.5570535 L10.80743,23.7480365 L10.0541342,23.200735 C10.550537,22.4204959 10.9627984,21.5814887 11.2781429,20.6964887 L12.2082822,20.9987092 L12.5172992,20.0476527 L11.5755628,19.741664 L11.5755628,19.741664 C11.8110487,18.8622459 11.9530248,17.9445884 11.9901828,17 L13,17 L13,16 L11.9901828,16 C11.9530248,15.0554116 11.8110487,14.1377541 11.5755628,13.258336 L12.5172992,12.9523473 L12.2082822,12.0012908 L11.2781429,12.3035113 C10.9627984,11.4185113 10.550537,10.5795041 10.0541342,9.799265 L10.80743,9.25196354 L10.2196448,8.44294654 L9.48394718,8.97746215 C9.03828381,8.38690712 8.54143597,7.8371454 8,7.33477335 L8,7.33477335 C10.2303977,5.265296 13.2174359,4 16.5,4 C19.7825641,4 22.7696023,5.265296 25,7.33477335 L25,7.33477335 C24.458564,7.8371454 23.9617162,8.38690712 23.5160528,8.97746215 L22.7803552,8.44294654 L22.19257,9.25196354 L22.9458658,9.799265 C22.449463,10.5795041 22.0372016,11.4185113 21.7218571,12.3035113 L20.7917178,12.0012908 L20.4827008,12.9523473 L21.4244372,13.258336 C21.1889513,14.1377541 21.0469752,15.0554116 21.0098172,16 L20,16 L20,17 L21.0098172,17 C21.0469752,17.9445884 21.1889513,18.8622459 21.4244372,19.741664 L21.4244372,19.741664 L20.4827008,20.0476527 L20.7917178,20.9987092 L21.7218571,20.6964887 C22.0372016,21.5814887 22.449463,22.4204959 22.9458658,23.200735 L22.19257,23.7480365 L22.7803552,24.5570535 L23.5160528,24.0225379 C23.9617162,24.6130929 24.458564,25.1628546 25,25.6652267 L25,25.6652267 L25,25.6652267 L25,25.6652267 Z M26.2675154,24.3011058 C27.9775151,22.1628649 29,19.4508396 29,16.5 C29,13.2389927 27.751268,10.2696426 25.7058937,8.04403932 C25.2019678,8.50875677 24.7396797,9.01794873 24.3252595,9.56538524 L25.2074062,10.2063023 L24.6196209,11.0153193 L23.7566657,10.3883456 C23.3198305,11.0832931 22.9552867,11.8282758 22.6735824,12.6127457 L23.6448873,12.9283418 L23.3358703,13.8793983 L22.377156,13.5678931 C22.1717465,14.3492105 22.0464794,15.1630192 22.0106742,16 L23,16 L23,17 L22.0106742,17 C22.0464794,17.8369808 22.1717465,18.6507895 22.377156,19.4321069 L23.3358703,19.1206017 L23.6448873,20.0716582 L22.6735824,20.3872543 C22.9552867,21.1717242 23.3198305,21.9167069 23.7566657,22.6116544 L24.6196209,21.9846807 L25.2074062,22.7936977 L24.3252595,23.4346148 C24.7396797,23.9820513 25.2019678,24.4912432 25.7058937,24.9559607 C25.6923728,24.970673 26.0752824,24.5414804 26.2675154,24.3011058 L26.2675154,24.3011058 Z M6.6450249,24.1904754 C4.98767923,22.0696771 4,19.400181 4,16.5 C4,13.2389926 5.24873208,10.2696424 7.29410653,8.04403906 C7.79803242,8.50875658 8.26032042,9.01794859 8.67474059,9.56538514 L7.79259381,10.2063023 L8.38037906,11.0153193 L9.24333438,10.3883456 C9.68016959,11.0832931 10.0447133,11.8282758 10.3264176,12.6127456 L9.35511269,12.9283418 L9.66412968,13.8793983 L10.622844,13.5678931 C10.8282535,14.3492105 10.9535206,15.1630193 10.9893258,16 L10,16 L10,17 L10.9893258,17 C10.9535206,17.8369808 10.8282535,18.6507895 10.622844,19.4321069 L9.66412968,19.1206017 L9.35511269,20.0716582 L10.3264176,20.3872543 C10.0447133,21.1717242 9.68016954,21.9167069 9.2433343,22.6116544 L8.38037906,21.9846807 L7.79259381,22.7936977 L8.67474046,23.4346148 C8.26032026,23.9820513 7.79803223,24.4912432 7.29410629,24.9559607 C7.30762721,24.970673 6.8635426,24.4700984 6.6450249,24.1904754 L6.6450249,24.1904754 Z" id="baseball" sketch:type="MSShapeGroup"></path>
        </g>
    </g>
</svg>

<svg width="32" height="32" xmlns="http://www.w3.org/2000/svg"><path d="M25 25.665A12.456 12.456 0 0 1 16.5 29c-3.283 0-6.27-1.265-8.5-3.335a12.572 12.572 0 0 0 1.484-1.642l.736.534.587-.809-.753-.547c.497-.78.909-1.62 1.224-2.505l.93.303.31-.951-.942-.306c.235-.88.377-1.797.414-2.742H13v-1h-1.01a12.488 12.488 0 0 0-.414-2.742l.941-.306-.309-.95-.93.302a12.45 12.45 0 0 0-1.224-2.505l.753-.547-.587-.81-.736.535C9.038 8.387 8.54 7.837 8 7.335A12.456 12.456 0 0 1 16.5 4c3.283 0 6.27 1.265 8.5 3.335a12.572 12.572 0 0 0-1.484 1.642l-.736-.534-.587.809.753.547a12.45 12.45 0 0 0-1.224 2.505l-.93-.303-.31.951.942.306c-.235.88-.377 1.797-.414 2.742H20v1h1.01c.037.945.179 1.862.414 2.742l-.941.306.309.95.93-.302a12.45 12.45 0 0 0 1.224 2.505l-.753.547.587.81.736-.535c.446.59.943 1.14 1.484 1.642zm1.268-1.364A12.447 12.447 0 0 0 29 16.5c0-3.261-1.249-6.23-3.294-8.456-.504.465-.966.974-1.38 1.521l.881.641-.587.81-.863-.628c-.437.695-.802 1.44-1.083 2.225l.97.315-.308.951-.959-.311c-.205.781-.33 1.595-.366 2.432H23v1h-.99c.036.837.162 1.65.367 2.432l.959-.311.309.95-.971.316c.281.785.646 1.53 1.083 2.225l.863-.627.587.809-.882.64c.415.548.877 1.057 1.38 1.522-.013.015.37-.415.563-.655zm-19.623-.11A12.446 12.446 0 0 1 4 16.5c0-3.261 1.249-6.23 3.294-8.456.504.465.966.974 1.38 1.521l-.881.641.587.81.863-.628c.437.695.802 1.44 1.083 2.225l-.97.315.308.951.959-.311c.205.781.33 1.595.366 2.432H10v1h.99c-.036.837-.162 1.65-.367 2.432l-.959-.311-.309.95.971.316c-.281.785-.646 1.53-1.083 2.225l-.863-.627-.587.809.882.64a11.567 11.567 0 0 1-1.38 1.522c.013.015-.431-.486-.65-.766z" fill="#929292" fill-rule="evenodd"/></svg>
